client/gadgets/radio/radio_unselected.svg

<svg width="17" height="18" viewBox="0 0 17 18" xmlns="http://www.w3.org/2000/svg"><title>radio</title><g fill="none" fill-rule="evenodd"><path d="M2 0h12v2H2V0zM1 2h2v2H1V2zM0 4h2v10H0V4zm1 10h2v2H1v-2zm1 2h1v2H2v-2z" fill="#FFF"/><path d="M15 18H3v-2h12v2zm1-2h-2v-2h2v2zm1-2h-2V4h2v10zM16 4h-2V2h2v2zm-1-2h-1V0h1v2z" fill="#000"/></g></svg>

<?xml version="1.0" encoding="UTF-8"?>
<svg width="17px" height="18px" viewBox="0 0 17 18" version="1.1" xmlns="http://www.w3.org/2000/svg" xmlns:xlink="http://www.w3.org/1999/xlink">
    <!-- Generator: Sketch 42 (36781) - http://www.bohemiancoding.com/sketch -->
    <title>radio</title>
    <desc>Created with Sketch.</desc>
    <defs></defs>
    <g id="Symbols" stroke="none" stroke-width="1" fill="none" fill-rule="evenodd">
        <g id="radio">
            <g id="checkbox">
                <path d="M2,0 L14,0 L14,2 L2,2 L2,0 Z M1,2 L3,2 L3,4 L1,4 L1,2 Z M0,4 L2,4 L2,14 L0,14 L0,4 Z M1,14 L3,14 L3,16 L1,16 L1,14 Z M2,16 L3,16 L3,18 L2,18 L2,16 Z" id="Combined-Shape" fill="#FFFFFF"></path>
                <path d="M5,0 L17,0 L17,2 L5,2 L5,0 Z M4,2 L6,2 L6,4 L4,4 L4,2 Z M3,4 L5,4 L5,14 L3,14 L3,4 Z M4,14 L6,14 L6,16 L4,16 L4,14 Z M5,16 L6,16 L6,18 L5,18 L5,16 Z" id="Combined-Shape" fill="#000000" transform="translate(10.000000, 9.000000) rotate(180.000000) translate(-10.000000, -9.000000) "></path>
            </g>
        </g>
    </g>
</svg>
